svg/Filled/download_filled.svg

<svg viewBox="0 0 24 24" xmlns="http://www.w3.org/2000/svg" width="24" height="24"><path d="M12.9 8.32c2.05 0 3.1.02 3.92.43a4 4 0 0 1 1.74 1.75c.44.86.44 1.98.44 4.22v1.2c0 2.24 0 3.36-.44 4.21a4 4 0 0 1-1.74 1.75c-.86.44-1.98.44-4.22.44h-1.2c-2.24 0-3.36 0-4.22-.44a4 4 0 0 1-1.74-1.75C5 19.28 5 18.16 5 15.92v-1.2c0-2.24 0-3.36.44-4.22a4 4 0 0 1 1.74-1.75c.82-.41 1.88-.43 3.93-.43v6.5l-1.35-1.35a.9.9 0 0 0-1.27 1.27l2.88 2.89a.9.9 0 0 0 1.28 0l2.88-2.89.06-.07a.9.9 0 0 0-1.26-1.26l-.07.06-1.35 1.35zM12 3.4a.9.9 0 0 1 .9.8v4.1h-1.8v-4l.01-.1a.9.9 0 0 1 .9-.8"/></svg>

<svg viewBox="0 0 24 24" xmlns="http://www.w3.org/2000/svg" width="24" height="24"><path d="M12.9 8.32C14.95 8.32 16 8.34 16.82 8.75A4 4 0 0 1 18.56 10.5C19 11.36 19 12.48 19 14.72L19 15.92C19 18.16 19 19.28 18.56 20.13A4 4 0 0 1 16.82 21.88C15.96 22.32 14.84 22.32 12.6 22.32L11.4 22.32C9.16 22.32 8.04 22.32 7.18 21.88A4 4 0 0 1 5.44 20.13C5 19.28 5 18.16 5 15.92L5 14.72C5 12.48 5 11.36 5.44 10.5A4 4 0 0 1 7.18 8.75C8 8.34 9.06 8.32 11.11 8.32L11.11 14.82L9.76 13.47A.9 .9 0 0 0 8.49 14.74L11.37 17.63A.9 .9 0 0 0 12.65 17.63L15.59 14.67A.9 .9 0 0 0 14.33 13.41L12.91 14.82ZM12 3.4A.9 .9 0 0 1 12.9 4.2L12.9 8.3L11.1 8.3L11.11 4.2A.9 .9 0 0 1 12.01 3.4"/></svg>
